packages/core/src/svgs/tryb.svg

<svg width="24" height="24" viewBox="0 0 24 24" fill="none" xmlns="http://www.w3.org/2000/svg">
<g clip-path="url(#clip0_31_20048)">
<path d="M0 0H24V24H0V0Z" fill="#20316B"/>
<path d="M17.5687 10.8844C17.5747 10.6546 17.5687 10.0486 17.5687 10.0486L11.9999 8.57136V10.2856L15.857 11.2885C15.5381 15.2541 13.6807 17.5328 10.2856 17.9999V4.7695L8.57129 4.28564V19.7142L9.48715 19.6679C12.8707 19.4974 16.8453 17.9369 17.5006 11.7616C17.5306 11.4792 17.5606 11.1869 17.5687 10.8844ZM15.8484 7.96279L16.2856 6.4285L11.9999 5.14279V6.85707L15.8484 7.96279Z" fill="white"/>
</g>
<defs>
<clipPath id="clip0_31_20048">
<rect width="24" height="24" fill="white"/>
</clipPath>
</defs>
</svg>

<svg xmlns="http://www.w3.org/2000/svg" width="24" height="24" fill="none" viewBox="0 0 24 24"><g clip-path="url(#a)"><path fill="#20316B" d="M0 0h24v24H0z"/><path fill="#fff" d="M17.569 10.884c.006-.23 0-.835 0-.835l-5.57-1.478v1.715l3.858 1.003c-.319 3.965-2.176 6.244-5.571 6.71V4.77L8.57 4.287v15.428l.916-.046c3.384-.17 7.358-1.731 8.014-7.906.03-.283.06-.575.068-.878m-1.72-2.921.437-1.535L12 5.143v1.714z"/></g><defs><clipPath id="a"><path fill="#fff" d="M0 0h24v24H0z"/></clipPath></defs></svg>
